packages/foundations/assets/icons/functional/images/business & payment/discount_24_filled.svg

<svg xmlns="http://www.w3.org/2000/svg" width="20" height="20" fill="none"><path fill="#1A1C1F" fill-rule="evenodd" d="M9.511 1.782c-.265.059-.59.222-.824.411a6 6 0 0 0-.542.578c-.242.29-.375.424-.41.414-.731-.222-.96-.267-1.352-.268-.322 0-.445.014-.633.074-.659.208-1.2.757-1.363 1.383a7 7 0 0 0-.103.747c-.031.309-.066.59-.079.624-.016.041-.185.122-.523.25-.625.237-.774.323-1.065.619a1.94 1.94 0 0 0-.587 1.389c-.001.525.078.745.55 1.542.139.236.253.442.253.459s-.118.207-.262.423c-.329.491-.425.681-.507.998-.12.471-.068.936.159 1.406.091.19.184.314.39.518.302.3.458.392 1.104.652.238.095.447.186.463.202.017.015.049.289.072.608.022.32.066.669.097.776a2.07 2.07 0 0 0 1.95 1.49c.26.003.415-.019.851-.122.293-.068.557-.132.586-.14.035-.011.146.103.348.357.489.614.766.845 1.192.995.591.207 1.331.124 1.826-.207.129-.086.363-.317.656-.647q.457-.514.507-.498c.77.234.951.268 1.385.266.38-.002.461-.013.658-.087.344-.131.577-.287.83-.557a2.1 2.1 0 0 0 .509-.913c.027-.105.067-.413.088-.683s.048-.526.061-.569c.019-.065.109-.111.522-.267.626-.237.773-.323 1.069-.622.418-.422.6-.904.571-1.516-.022-.476-.105-.706-.482-1.328a7 7 0 0 1-.309-.541c0-.016.122-.214.271-.439s.314-.498.366-.608c.364-.764.197-1.677-.421-2.301-.261-.263-.498-.404-1.068-.635a5 5 0 0 1-.495-.217c-.017-.016-.049-.29-.072-.609-.023-.321-.066-.667-.097-.775a2.03 2.03 0 0 0-1.068-1.275c-.507-.252-.952-.27-1.8-.073-.44.102-.574.123-.603.091-.02-.022-.162-.198-.316-.39-.452-.564-.719-.782-1.156-.943-.244-.089-.887-.112-1.197-.042M7.946 6.658c.538.193.8.86.544 1.383a1 1 0 0 1-1.65.209 1.02 1.02 0 0 1-.184-1.002c.073-.214.368-.516.577-.59a1.2 1.2 0 0 1 .713 0m4.771.642.699.7-2.708 2.708L8 13.417l-.7-.701-.701-.7 2.687-2.708c1.477-1.49 2.696-2.708 2.709-2.708s.337.315.722.7m.142 4.213c.438.222.65.756.487 1.232a1.1 1.1 0 0 1-.566.587c-.362.135-.755.07-1.03-.172a1.016 1.016 0 0 1-.154-1.349c.28-.386.832-.517 1.263-.298"/></svg>

<svg width="20" height="20" viewBox="0 0 20 20" fill="none" xmlns="http://www.w3.org/2000/svg"><path d="M9.511 1.782 C 9.246 1.841,8.921 2.004,8.687 2.193 C 8.586 2.275,8.342 2.535,8.145 2.771 C 7.903 3.061,7.770 3.195,7.735 3.185 C 7.004 2.963,6.775 2.918,6.383 2.917 C 6.061 2.917,5.938 2.931,5.750 2.991 C 5.091 3.199,4.550 3.748,4.387 4.374 C 4.361 4.475,4.314 4.811,4.284 5.121 C 4.253 5.430,4.218 5.711,4.205 5.745 C 4.189 5.786,4.020 5.867,3.682 5.995 C 3.057 6.232,2.908 6.318,2.617 6.614 C 2.231 7.004,2.031 7.479,2.030 8.003 C 2.029 8.528,2.108 8.748,2.580 9.545 C 2.719 9.781,2.833 9.987,2.833 10.004 C 2.833 10.021,2.715 10.211,2.571 10.427 C 2.242 10.918,2.146 11.108,2.064 11.425 C 1.944 11.896,1.996 12.361,2.223 12.831 C 2.314 13.021,2.407 13.145,2.613 13.349 C 2.915 13.649,3.071 13.741,3.717 14.001 C 3.955 14.096,4.164 14.187,4.180 14.203 C 4.197 14.218,4.229 14.492,4.252 14.811 C 4.274 15.131,4.318 15.480,4.349 15.587 C 4.600 16.456,5.399 17.066,6.299 17.077 C 6.559 17.080,6.714 17.058,7.150 16.955 C 7.443 16.887,7.707 16.823,7.736 16.815 C 7.771 16.804,7.882 16.918,8.084 17.172 C 8.573 17.786,8.850 18.017,9.276 18.167 C 9.867 18.374,10.607 18.291,11.102 17.960 C 11.231 17.874,11.465 17.643,11.758 17.313 C 12.063 16.970,12.231 16.805,12.265 16.815 C 13.035 17.049,13.216 17.083,13.650 17.081 C 14.030 17.079,14.111 17.068,14.308 16.994 C 14.652 16.863,14.885 16.707,15.138 16.437 C 15.385 16.174,15.559 15.862,15.647 15.524 C 15.674 15.419,15.714 15.111,15.735 14.841 C 15.756 14.571,15.783 14.315,15.796 14.272 C 15.815 14.207,15.905 14.161,16.318 14.005 C 16.944 13.768,17.091 13.682,17.387 13.383 C 17.805 12.961,17.987 12.479,17.958 11.867 C 17.936 11.391,17.853 11.161,17.476 10.539 C 17.306 10.258,17.167 10.015,17.167 9.998 C 17.167 9.982,17.289 9.784,17.438 9.559 C 17.587 9.334,17.752 9.061,17.804 8.951 C 18.168 8.187,18.001 7.274,17.383 6.650 C 17.122 6.387,16.885 6.246,16.315 6.015 C 16.059 5.912,15.836 5.814,15.820 5.798 C 15.803 5.782,15.771 5.508,15.748 5.189 C 15.725 4.868,15.682 4.522,15.651 4.414 C 15.486 3.847,15.113 3.402,14.583 3.139 C 14.076 2.887,13.631 2.869,12.783 3.066 C 12.343 3.168,12.209 3.189,12.180 3.157 C 12.160 3.135,12.018 2.959,11.864 2.767 C 11.412 2.203,11.145 1.985,10.708 1.824 C 10.464 1.735,9.821 1.712,9.511 1.782 M7.946 6.658 C 8.484 6.851,8.746 7.518,8.490 8.041 C 8.176 8.679,7.314 8.789,6.840 8.250 C 6.607 7.985,6.536 7.600,6.656 7.248 C 6.729 7.034,7.024 6.732,7.233 6.658 C 7.436 6.587,7.747 6.587,7.946 6.658 M12.717 7.300 L 13.416 8.000 10.708 10.708 L 8.000 13.417 7.300 12.716 L 6.599 12.016 9.286 9.308 C 10.763 7.818,11.982 6.600,11.995 6.600 C 12.007 6.600,12.332 6.915,12.717 7.300 M12.859 11.513 C 13.297 11.735,13.509 12.269,13.346 12.745 C 13.268 12.977,13.007 13.247,12.780 13.332 C 12.418 13.467,12.025 13.402,11.750 13.160 C 11.362 12.818,11.294 12.227,11.596 11.811 C 11.876 11.425,12.428 11.294,12.859 11.513 " fill="#1A1C1F" stroke="none" fill-rule="evenodd"></path></svg>
